build/assets/img/svg/icon-sharing-facebook.svg

<svg width="24" height="24" viewBox="0 0 24 24" fill="none" xmlns="http://www.w3.org/2000/svg">
<path opacity="0.7" d="M13.6607 22.9996V13.2218H17.0655L17.9167 9.14775H13.6607V7.51812C13.6607 5.88849 14.5136 5.07368 16.2143 5.07368H17.9167V0.999603C17.0655 0.999603 16.01 0.999603 14.5119 0.999603C11.3838 0.999603 9.40476 3.34708 9.40476 6.70331V9.14775H6V13.2218H9.40476V22.9996H13.6607Z" fill="black"/>
</svg>

<svg width="24" height="24" fill="none" xmlns="http://www.w3.org/2000/svg"><path opacity=".7" d="M13.66 23v-9.778h3.405l.852-4.074H13.66v-1.63c0-1.63.853-2.444 2.553-2.444h1.703V1h-3.405c-3.128 0-5.107 2.347-5.107 5.703v2.445H6v4.074h3.405V23h4.256z" fill="#000"/></svg>
